assets/icons/icon_social_Mail.svg

<?xml version="1.0" encoding="UTF-8"?>
<svg width="34px" height="34px" viewBox="0 0 34 34" version="1.1" xmlns="http://www.w3.org/2000/svg" xmlns:xlink="http://www.w3.org/1999/xlink">
    <!-- Generator: Sketch 59.1 (86144) - https://sketch.com -->
    <title>Combined Shape</title>
    <desc>Created with Sketch.</desc>
    <g id="Welcome" stroke="none" stroke-width="1" fill="none" fill-rule="evenodd" opacity="0.7">
        <g id="portfolio-desktop" transform="translate(-235.000000, -16.000000)" fill="#6097DF">
            <g id="nav-bar" transform="translate(0.000000, -1.000000)">
                <g id="social-media-copy" transform="translate(133.000000, 17.000000)">
                    <g id="mail" transform="translate(102.000000, 0.000000)">
                        <path d="M29.8460234,0 C32.1386992,0 34,1.86136719 34,4.15397656 L34,29.8460234 C34,32.1386328 32.1386328,34 29.8460234,34 L4.15397656,34 C1.86136719,34 0,32.1386328 0,29.8460234 L0,4.15397656 C0,1.86136719 1.86130078,0 4.15397656,0 L29.8460234,0 Z M17.3167933,5.37895509 L17,5.37890625 C13.8439102,5.37890625 13.4481289,5.39225391 12.2086562,5.44883203 C10.971707,5.50527734 10.1269531,5.70170703 9.38771875,5.98904687 C8.62351562,6.28601562 7.97545703,6.68339062 7.32939062,7.32939062 C6.68332422,7.97545703 6.28594922,8.62358203 5.98898047,9.38771875 C5.70170703,10.1269531 5.50527734,10.971707 5.44876562,12.2086562 C5.43903994,12.4219699 5.43059271,12.6102946 5.42327195,12.7920014 L5.4118283,12.8087361 L5.42227016,12.8170032 C5.38932722,13.643762 5.37970602,14.3502321 5.37895509,16.6832067 L5.37890625,17 C5.37890625,20.1560898 5.39225391,20.5518711 5.44876562,21.7913437 C5.50527734,23.028293 5.70170703,23.8730469 5.98898047,24.6122812 C6.28594922,25.376418 6.68332422,26.024543 7.32939062,26.6706094 C7.97545703,27.3166758 8.62351562,27.7140508 9.38771875,28.0110195 C10.1269531,28.298293 10.971707,28.4947227 12.2086562,28.551168 C13.4053885,28.6057951 13.8156117,28.6201218 16.6832067,28.6210449 L17,28.6210937 C20.1560898,28.6210937 20.5518711,28.6077461 21.7913437,28.551168 C23.028293,28.4947227 23.8730469,28.298293 24.6122812,28.0110195 C25.376418,27.7140508 26.024543,27.3166758 26.6706094,26.6706094 C27.3166758,26.024543 27.7140508,25.376418 28.0110195,24.6122812 C28.298293,23.8730469 28.4947227,23.028293 28.551168,21.7913437 C28.6057951,20.5946115 28.6201218,20.1843883 28.6210449,17.3167933 L28.6210937,17 C28.6210937,14.4120263 28.6121189,13.6800555 28.5776932,12.8170032 L28.5881717,12.8087361 L28.5766904,12.7920014 C28.5693618,12.6102946 28.5609051,12.4219699 28.551168,12.2086562 C28.4947227,10.971707 28.298293,10.1269531 28.0110195,9.38771875 C27.7140508,8.62358203 27.3166758,7.97545703 26.6706094,7.32939062 C26.024543,6.68339062 25.376418,6.28601562 24.6122812,5.98904687 C23.8730469,5.70170703 23.028293,5.50527734 21.7913437,5.44883203 C20.5946115,5.39420488 20.1843883,5.37987818 17.3167933,5.37895509 Z M26.5270581,16.3958594 L26.5270581,17.6041406 C26.5253893,20.1577427 26.5114954,20.5550334 26.4594375,21.695918 C26.4077734,22.8289414 26.2184492,23.4442617 26.0593398,23.8537891 C25.8485,24.3962617 25.5966875,24.7833437 25.1900156,25.1900156 C24.7833437,25.5966875 24.3962617,25.8485 23.8537891,26.0593398 C23.4442617,26.2184492 22.8289414,26.4077734 21.695918,26.4594375 C20.5552189,26.5114954 20.1579409,26.5253893 17.604179,26.5270581 L16.3958219,26.5270581 C13.8420676,26.5253893 13.4448429,26.5114954 12.304082,26.4594375 C11.1710586,26.4077734 10.5557383,26.2184492 10.1462109,26.0593398 C9.60373828,25.8485 9.21665625,25.5966875 8.80998437,25.1900156 C8.4033125,24.7833437 8.15143359,24.3962617 7.94066016,23.8537891 C7.78155078,23.4442617 7.59222656,22.8289414 7.54049609,21.695918 C7.48843817,20.5550334 7.47460183,20.1577427 7.47294097,17.6041406 L7.47294097,16.3958594 C7.47355015,15.4592336 7.47579732,14.8127007 7.48096772,14.3131666 L16.4118283,20.8087361 C16.7624788,21.0637546 17.2375212,21.0637546 17.5881717,20.8087361 L26.5190079,14.3131666 C26.5241893,14.8127007 26.526446,15.4592336 26.5270581,16.3958594 Z M21.695918,7.5405625 C22.8289414,7.59229297 23.4442617,7.78161719 23.8537891,7.94066016 C24.3962617,8.1515 24.7833437,8.40337891 25.1900156,8.80998437 C25.5966875,9.21665625 25.8485,9.60380469 26.0593398,10.1462109 C26.1984499,10.5042625 26.3606564,11.0196239 26.4337642,11.9007527 L17,18.7635027 L7.5661914,11.9007527 C7.63934362,11.0196239 7.80155013,10.5042625 7.94066016,10.1462109 C8.15143359,9.60380469 8.4033125,9.21665625 8.80998437,8.80998437 C9.21665625,8.40337891 9.60373828,8.1515 10.1462109,7.94066016 C10.5557383,7.78161719 11.1710586,7.59229297 12.304082,7.5405625 C13.4872216,7.48657651 13.8706663,7.47369575 16.688614,7.47287161 L17,7.47282812 C20.1029648,7.47282812 20.4705234,7.48464844 21.695918,7.5405625 Z" id="Combined-Shape"></path>
                    </g>
                </g>
            </g>
        </g>
    </g>
</svg>

<svg width="34" height="34" xmlns="http://www.w3.org/2000/svg"><path d="M29.846 0A4.156 4.156 0 0134 4.154v25.692A4.156 4.156 0 0129.846 34H4.154A4.156 4.156 0 010 29.846V4.154A4.156 4.156 0 014.154 0h25.692zm-12.53 5.379H17c-3.156 0-3.552.013-4.791.07-1.237.056-2.082.253-2.821.54a5.697 5.697 0 00-2.059 1.34 5.697 5.697 0 00-1.34 2.059c-.287.739-.484 1.584-.54 2.82l-.026.584-.011.017.01.008c-.033.827-.042 1.533-.043 3.866V17c0 3.156.013 3.552.07 4.791.056 1.237.253 2.082.54 2.821a5.697 5.697 0 001.34 2.059 5.696 5.696 0 002.059 1.34c.739.287 1.584.484 2.82.54 1.197.055 1.608.07 4.475.07H17c3.156 0 3.552-.013 4.791-.07 1.237-.056 2.082-.253 2.821-.54a5.697 5.697 0 002.059-1.34 5.697 5.697 0 001.34-2.059c.287-.739.484-1.584.54-2.82.055-1.197.07-1.608.07-4.475V17c0-2.588-.009-3.32-.043-4.183l.01-.008-.011-.017-.026-.583c-.056-1.237-.253-2.082-.54-2.821a5.697 5.697 0 00-1.34-2.059 5.697 5.697 0 00-2.059-1.34c-.739-.287-1.584-.484-2.82-.54-1.197-.055-1.608-.07-4.475-.07zm9.211 11.017v1.208c-.002 2.554-.016 2.951-.068 4.092-.051 1.133-.24 1.748-.4 2.158a3.6 3.6 0 01-.869 1.336 3.6 3.6 0 01-1.336.87c-.41.158-1.025.348-2.158.4-1.14.051-1.538.065-4.092.067h-1.208c-2.554-.002-2.951-.016-4.092-.068-1.133-.051-1.748-.24-2.158-.4a3.6 3.6 0 01-1.336-.869 3.6 3.6 0 01-.87-1.336c-.158-.41-.348-1.025-.4-2.158-.052-1.141-.065-1.538-.067-4.092v-1.208c0-.937.003-1.583.008-2.083l8.93 6.496a1 1 0 001.177 0l8.931-6.496c.005.5.007 1.146.008 2.083zM21.696 7.54c1.133.051 1.748.24 2.158.4.542.21.93.462 1.336.869.407.407.659.794.87 1.336.138.358.3.874.374 1.755L17 18.764 7.566 11.9c.073-.881.236-1.397.375-1.755A3.6 3.6 0 018.81 8.81a3.601 3.601 0 011.336-.87c.41-.158 1.025-.348 2.158-.4 1.183-.053 1.567-.066 4.385-.067H17c3.103 0 3.47.012 4.696.068z" fill="#6097DF" fill-rule="evenodd" opacity=".7"/></svg>
